X: 432
T: Buzhidao gege shenhui lai
%%abc-version 2.0
%%abcx-abcm2ps-target-version 5.9.1 (29 Sep 2008)
%%abc-creator hum2abc beta
%%abcx-conversion-date 2013/10/02 07:52:30
%%abc-edited-by Helmut Schaffrath
%%humdrum-veritas 1361509527
%%humdrum-veritas-data 3366024743
%%continueall 1
%%barnumbers 0
L: 1/8
M: 2/4
K: C
d dd2 [I:setbarnb 1]| 
e d/ e/d2 | 
e d d A | 
c4 | 
d A/ c/d2 | 
d c/ A< G A/ | 
cd2A | 
G4 |]  



